X: 26814
T: Milliner's Daughter, The
R: reel
M: 4/4
K: Gmajor
dg~g2 dg~g2|df~f2 df~f2|dgg fg2ge|d^cde fd=cA|
dg~g2 bgag|dcde ~f3g|afge fde^c|d2 (3efg fd=cA||

